X: 14676
T: Gan Ainm
R: slip jig
M: 9/8
K: Adorian
|:~E3 A2B AGE|E2G DEF G2A|BAB def gdd|1 edB ABA A2G:|2 edB ABA AB/c/d||
|:[M:6/8] e2a aga|~b3 a2g|edd gdd|BGG AB/c/d|
e2a aga|~b3 a2g|ede gdB|1 ABA AB/c/d:|2 ABA A2G||

